X:166
%%pagewidth 9in
%%vocalfont Baskerville10Pro 14
T:Since first I saw your face
M:C
L:1/8
K:Eb
%%score 1 2
V:1 clef-treble
V:2 clef-bass octave=-1
V:1
E2|E3F G2[EA]2|B2AG F2[Ec]2&[B,E]4[CE]2x2|B3B [CEA]2[B,EG]2&E4x4|
w:Since first I saw your face I resolv'd* To ho-nour and re-
V:2
z2|E6C2|G,4A,2[A,F]2|[B,G]4B,2B,2-|
V:1
[DF]4E2E2|E3F [EG]2[EA]2|[EGB]2 ([FA][EG])[DF]2[DFd]2|B3B[DA]2[EG]2|
w:nown you, If now I be dis-dain'd I* wish My heart had ne-ver
V:2
A4G2z2&B,2B,2E2x2|G6C2&C6x2|B,6A,2|G,4F,2E,2|
V:1
[DF]4E2||"^f"G2|c3c =A2F2&G2x6|B3B G2[FB]2& F2x6|e3e [Fce]2[FBd]2&[EG]2x6|
w:known you. What! I that lov'd, and you that lik'd, Shall we be-gin to
V:2
A4G2&B,2B,,2E,2||z2|[Ec]4[Fc]4|[DB]4[EB]2D2|C4=A,2B,2|
V:1
[E=Ac]4[DB]4|"^pp"!<(!c3A B3G&D4E4|A3F [EG]2!<)! "^mf" [Ec]2&E2D2x4|B3B A2[B,EG]2&E4[CE]2x2|[DF]4E2||
w:wran-gle? No, no, no, my heart is fast, And can-not dis-en-tan-gle.
V:2
F2F,2B,4|_A3F G3E|F2B,2E2[=A,F]2|[B,G]4B,2B,2-|A4G2&B,2B,2E2||

